static/img/kroki/c4d59e75c5162467fb083af36fe26dd1.svg

<?xml version="1.0" encoding="us-ascii" standalone="no"?><svg xmlns="http://www.w3.org/2000/svg" xmlns:xlink="http://www.w3.org/1999/xlink" contentStyleType="text/css" height="875px" preserveAspectRatio="none" style="width:498px;height:875px;" version="1.1" viewBox="0 0 498 875" width="498px" zoomAndPan="magnify"><defs/><g><!--class aws_ec2_internet_gateway--><g id="elem_aws_ec2_internet_gateway"><rect codeLine="22" fill="#3D176E" height="74.0859" id="aws_ec2_internet_gateway" rx="2.5" ry="2.5" style="stroke:#000D19;stroke-width:0.5;" width="484" x="7" y="633.84"/><ellipse cx="125.25" cy="653.7345" fill="#ADD1B2" rx="11" ry="11" style="stroke:#181818;stroke-width:1.0;"/><path d="M128.2188,659.3752 Q127.6406,659.672 127,659.8127 Q126.3594,659.9689 125.6563,659.9689 Q123.1563,659.9689 121.8281,658.3283 Q120.5156,656.672 120.5156,653.547 Q120.5156,650.422 121.8281,648.7658 Q123.1563,647.1095 125.6563,647.1095 Q126.3594,647.1095 127,647.2658 Q127.6563,647.422 128.2188,647.7189 L128.2188,650.4377 Q127.5938,649.8595 127,649.5939 Q126.4063,649.3127 125.7813,649.3127 Q124.4375,649.3127 123.75,650.3908 Q123.0625,651.4533 123.0625,653.547 Q123.0625,655.6408 123.75,656.7189 Q124.4375,657.7814 125.7813,657.7814 Q126.4063,657.7814 127,657.5158 Q127.5938,657.2345 128.2188,656.6564 L128.2188,659.3752 Z " fill="#000000"/><text fill="#D9B8FF" font-family="Helvetica" font-size="17" lengthAdjust="spacing" textLength="229" x="150.75" y="659.6198">aws_ec2_internet_gateway</text><line style="stroke:#000D19;stroke-width:0.5;" x1="8" x2="490" y1="673.6291" y2="673.6291"/><text fill="#D9B8FF" font-family="sans-serif" font-size="14" font-weight="bold" lengthAdjust="spacing" textLength="172" x="18" y="695.6242">gateway_attachments</text><text fill="#D9B8FF" font-family="sans-serif" font-size="14" lengthAdjust="spacing" textLength="290" x="190" y="695.6242">: aws_ec2_internet_gateway_attachment[]</text></g><!--class aws_ec2_internet_gateway_attachment--><g id="elem_aws_ec2_internet_gateway_attachment"><rect codeLine="25" fill="#3D176E" height="100.3828" id="aws_ec2_internet_gateway_attachment" rx="2.5" ry="2.5" style="stroke:#000D19;stroke-width:0.5;" width="378" x="60" y="767.93"/><ellipse cx="75" cy="787.8245" fill="#ADD1B2" rx="11" ry="11" style="stroke:#181818;stroke-width:1.0;"/><path d="M77.9688,793.4652 Q77.3906,793.762 76.75,793.9027 Q76.1094,794.0589 75.4063,794.0589 Q72.9063,794.0589 71.5781,792.4183 Q70.2656,790.762 70.2656,787.637 Q70.2656,784.512 71.5781,782.8558 Q72.9063,781.1995 75.4063,781.1995 Q76.1094,781.1995 76.75,781.3558 Q77.4063,781.512 77.9688,781.8089 L77.9688,784.5277 Q77.3438,783.9495 76.75,783.6839 Q76.1563,783.4027 75.5313,783.4027 Q74.1875,783.4027 73.5,784.4808 Q72.8125,785.5433 72.8125,787.637 Q72.8125,789.7308 73.5,790.8089 Q74.1875,791.8714 75.5313,791.8714 Q76.1563,791.8714 76.75,791.6058 Q77.3438,791.3245 77.9688,790.7464 L77.9688,793.4652 Z " fill="#000000"/><text fill="#D9B8FF" font-family="Helvetica" font-size="17" lengthAdjust="spacing" textLength="336" x="94" y="793.7098">aws_ec2_internet_gateway_attachment</text><line style="stroke:#000D19;stroke-width:0.5;" x1="61" x2="437" y1="807.7191" y2="807.7191"/><text fill="#D9B8FF" font-family="sans-serif" font-size="14" font-weight="bold" lengthAdjust="spacing" textLength="40" x="71" y="829.7142">state</text><text fill="#D9B8FF" font-family="sans-serif" font-size="14" lengthAdjust="spacing" textLength="48" x="111" y="829.7142">: string</text><text fill="#D9B8FF" font-family="sans-serif" font-size="14" font-weight="bold" lengthAdjust="spacing" textLength="49" x="71" y="856.0111">vpc_id</text><text fill="#D9B8FF" font-family="sans-serif" font-size="14" lengthAdjust="spacing" textLength="48" x="120" y="856.0111">: string</text></g><!--class aws_resource--><g id="elem_aws_resource"><rect codeLine="29" fill="#3D176E" height="74.0859" id="aws_resource" rx="2.5" ry="2.5" style="stroke:#000D19;stroke-width:0.5;" width="155" x="87.5" y="438.76"/><ellipse cx="102.5" cy="458.6545" fill="#ADD1B2" rx="11" ry="11" style="stroke:#181818;stroke-width:1.0;"/><path d="M105.4688,464.2952 Q104.8906,464.592 104.25,464.7327 Q103.6094,464.8889 102.9063,464.8889 Q100.4063,464.8889 99.0781,463.2483 Q97.7656,461.592 97.7656,458.467 Q97.7656,455.342 99.0781,453.6858 Q100.4063,452.0295 102.9063,452.0295 Q103.6094,452.0295 104.25,452.1858 Q104.9063,452.342 105.4688,452.6389 L105.4688,455.3577 Q104.8438,454.7795 104.25,454.5139 Q103.6563,454.2327 103.0313,454.2327 Q101.6875,454.2327 101,455.3108 Q100.3125,456.3733 100.3125,458.467 Q100.3125,460.5608 101,461.6389 Q101.6875,462.7014 103.0313,462.7014 Q103.6563,462.7014 104.25,462.4358 Q104.8438,462.1545 105.4688,461.5764 L105.4688,464.2952 Z " fill="#000000"/><text fill="#D9B8FF" font-family="Helvetica" font-size="17" lengthAdjust="spacing" textLength="113" x="121.5" y="464.5398">aws_resource</text><line style="stroke:#000D19;stroke-width:0.5;" x1="88.5" x2="241.5" y1="478.5491" y2="478.5491"/><text fill="#D9B8FF" font-family="sans-serif" font-size="14" font-weight="bold" lengthAdjust="spacing" textLength="26" x="98.5" y="500.5442">arn</text><text fill="#D9B8FF" font-family="sans-serif" font-size="14" lengthAdjust="spacing" textLength="48" x="124.5" y="500.5442">: string</text></g><!--class gateway--><g id="elem_gateway"><rect codeLine="32" fill="#3D176E" height="39.7891" id="gateway" rx="2.5" ry="2.5" style="stroke:#000D19;stroke-width:0.5;" width="114" x="277" y="455.9"/><ellipse cx="292" cy="475.7945" fill="#ADD1B2" rx="11" ry="11" style="stroke:#181818;stroke-width:1.0;"/><path d="M294.9688,481.4352 Q294.3906,481.732 293.75,481.8727 Q293.1094,482.0289 292.4063,482.0289 Q289.9063,482.0289 288.5781,480.3883 Q287.2656,478.732 287.2656,475.607 Q287.2656,472.482 288.5781,470.8258 Q289.9063,469.1695 292.4063,469.1695 Q293.1094,469.1695 293.75,469.3258 Q294.4063,469.482 294.9688,469.7789 L294.9688,472.4977 Q294.3438,471.9195 293.75,471.6539 Q293.1563,471.3727 292.5313,471.3727 Q291.1875,471.3727 290.5,472.4508 Q289.8125,473.5133 289.8125,475.607 Q289.8125,477.7008 290.5,478.7789 Q291.1875,479.8414 292.5313,479.8414 Q293.1563,479.8414 293.75,479.5758 Q294.3438,479.2945 294.9688,478.7164 L294.9688,481.4352 Z " fill="#000000"/><text fill="#D9B8FF" font-family="Helvetica" font-size="17" lengthAdjust="spacing" textLength="72" x="311" y="481.6798">gateway</text></g><!--class resource--><g id="elem_resource"><rect codeLine="34" fill="#3D176E" height="310.7578" id="resource" rx="2.5" ry="2.5" style="stroke:#000D19;stroke-width:0.5;" width="227" x="135.5" y="7"/><ellipse cx="204.25" cy="26.8945" fill="#ADD1B2" rx="11" ry="11" style="stroke:#181818;stroke-width:1.0;"/><path d="M207.2188,32.5352 Q206.6406,32.832 206,32.9727 Q205.3594,33.1289 204.6563,33.1289 Q202.1563,33.1289 200.8281,31.4883 Q199.5156,29.832 199.5156,26.707 Q199.5156,23.582 200.8281,21.9258 Q202.1563,20.2695 204.6563,20.2695 Q205.3594,20.2695 206,20.4258 Q206.6563,20.582 207.2188,20.8789 L207.2188,23.5977 Q206.5938,23.0195 206,22.7539 Q205.4063,22.4727 204.7813,22.4727 Q203.4375,22.4727 202.75,23.5508 Q202.0625,24.6133 202.0625,26.707 Q202.0625,28.8008 202.75,29.8789 Q203.4375,30.9414 204.7813,30.9414 Q205.4063,30.9414 206,30.6758 Q206.5938,30.3945 207.2188,29.8164 L207.2188,32.5352 Z " fill="#000000"/><text fill="#D9B8FF" font-family="Helvetica" font-size="17" lengthAdjust="spacing" textLength="71" x="229.75" y="32.7798">resource</text><line style="stroke:#000D19;stroke-width:0.5;" x1="136.5" x2="361.5" y1="46.7891" y2="46.7891"/><text fill="#D9B8FF" font-family="sans-serif" font-size="14" font-weight="bold" lengthAdjust="spacing" textLength="29" x="146.5" y="68.7842">age</text><text fill="#D9B8FF" font-family="sans-serif" font-size="14" lengthAdjust="spacing" textLength="66" x="175.5" y="68.7842">: duration</text><text fill="#D9B8FF" font-family="sans-serif" font-size="14" font-weight="bold" lengthAdjust="spacing" textLength="43" x="146.5" y="95.0811">atime</text><text fill="#D9B8FF" font-family="sans-serif" font-size="14" lengthAdjust="spacing" textLength="70" x="189.5" y="95.0811">: datetime</text><text fill="#D9B8FF" font-family="sans-serif" font-size="14" font-weight="bold" lengthAdjust="spacing" textLength="43" x="146.5" y="121.3779">ctime</text><text fill="#D9B8FF" font-family="sans-serif" font-size="14" lengthAdjust="spacing" textLength="70" x="189.5" y="121.3779">: datetime</text><text fill="#D9B8FF" font-family="sans-serif" font-size="14" font-weight="bold" lengthAdjust="spacing" textLength="14" x="146.5" y="147.6748">id</text><text fill="#D9B8FF" font-family="sans-serif" font-size="14" lengthAdjust="spacing" textLength="48" x="160.5" y="147.6748">: string</text><text fill="#D9B8FF" font-family="sans-serif" font-size="14" font-weight="bold" lengthAdjust="spacing" textLength="33" x="146.5" y="173.9717">kind</text><text fill="#D9B8FF" font-family="sans-serif" font-size="14" lengthAdjust="spacing" textLength="48" x="179.5" y="173.9717">: string</text><text fill="#D9B8FF" font-family="sans-serif" font-size="14" font-weight="bold" lengthAdjust="spacing" textLength="90" x="146.5" y="200.2686">last_access</text><text fill="#D9B8FF" font-family="sans-serif" font-size="14" lengthAdjust="spacing" textLength="66" x="236.5" y="200.2686">: duration</text><text fill="#D9B8FF" font-family="sans-serif" font-size="14" font-weight="bold" lengthAdjust="spacing" textLength="90" x="146.5" y="226.5654">last_update</text><text fill="#D9B8FF" font-family="sans-serif" font-size="14" lengthAdjust="spacing" textLength="66" x="236.5" y="226.5654">: duration</text><text fill="#D9B8FF" font-family="sans-serif" font-size="14" font-weight="bold" lengthAdjust="spacing" textLength="48" x="146.5" y="252.8623">mtime</text><text fill="#D9B8FF" font-family="sans-serif" font-size="14" lengthAdjust="spacing" textLength="70" x="194.5" y="252.8623">: datetime</text><text fill="#D9B8FF" font-family="sans-serif" font-size="14" font-weight="bold" lengthAdjust="spacing" textLength="43" x="146.5" y="279.1592">name</text><text fill="#D9B8FF" font-family="sans-serif" font-size="14" lengthAdjust="spacing" textLength="48" x="189.5" y="279.1592">: string</text><text fill="#D9B8FF" font-family="sans-serif" font-size="14" font-weight="bold" lengthAdjust="spacing" textLength="34" x="146.5" y="305.4561">tags</text><text fill="#D9B8FF" font-family="sans-serif" font-size="14" lengthAdjust="spacing" textLength="171" x="180.5" y="305.4561">: dictionary[string, string]</text></g><!--link aws_ec2_internet_gateway to aws_ec2_internet_gateway_attachment--><g id="link_aws_ec2_internet_gateway_aws_ec2_internet_gateway_attachment"><path codeLine="46" d="M249,708.16 C249,726.14 249,742.12 249,761.62 " fill="none" id="aws_ec2_internet_gateway-to-aws_ec2_internet_gateway_attachment" style="stroke:#FFAF37;stroke-width:2.0;"/><polygon fill="#FFAF37" points="249,767.62,253,758.62,249,762.62,245,758.62,249,767.62" style="stroke:#FFAF37;stroke-width:2.0;"/></g><!--reverse link aws_resource to aws_ec2_internet_gateway--><g id="link_aws_resource_aws_ec2_internet_gateway"><path codeLine="47" d="M187.9808,529.6257 C202.9508,564.0357 218.13,598.94 233.13,633.4 " fill="none" id="aws_resource-backto-aws_ec2_internet_gateway" style="stroke:#FFAF37;stroke-width:2.0;"/><polygon fill="none" points="180.8,513.12,182.4789,532.0192,193.4826,527.2321,180.8,513.12" style="stroke:#FFAF37;stroke-width:2.0;"/></g><!--reverse link gateway to aws_ec2_internet_gateway--><g id="link_gateway_aws_ec2_internet_gateway"><path codeLine="48" d="M318.2855,512.4934 C304.2155,544.4434 283.05,592.54 265.07,633.37 " fill="none" id="gateway-backto-aws_ec2_internet_gateway" style="stroke:#FFAF37;stroke-width:2.0;"/><polygon fill="none" points="325.54,496.02,312.7944,510.0752,323.7767,514.9115,325.54,496.02" style="stroke:#FFAF37;stroke-width:2.0;"/></g><!--reverse link resource to aws_resource--><g id="link_resource_aws_resource"><path codeLine="49" d="M202.5619,335.5488 C190.4119,380.5888 182.93,408.34 174.79,438.51 " fill="none" id="resource-backto-aws_resource" style="stroke:#FFAF37;stroke-width:2.0;"/><polygon fill="none" points="207.25,318.17,196.769,333.9861,208.3548,337.1115,207.25,318.17" style="stroke:#FFAF37;stroke-width:2.0;"/></g><!--reverse link resource to gateway--><g id="link_resource_gateway"><path codeLine="50" d="M295.9907,335.5345 C310.9107,390.1845 321.12,427.62 328.77,455.65 " fill="none" id="resource-backto-gateway" style="stroke:#FFAF37;stroke-width:2.0;"/><polygon fill="none" points="291.25,318.17,290.2025,337.1147,301.7789,333.9543,291.25,318.17" style="stroke:#FFAF37;stroke-width:2.0;"/></g><!--SRC=[ZPDRQzj048NVzIiMyYOgi1DQnwKK4aDeNq9f-XQA6E-EvCNMhfWTnRYN_zxLnUtg5lTDdFFDd9cHjDCA1HObdqI1nHR9HMwlJGa4XRWZiiUDFLWILra6sSrgQ3vOmnU1HoXGVCB32xAMC2I-xRJS6tHEN0VMFSXzJhOogctF1CPv2mq7rEO0pjqnazvMZC4mQhszpR8XEMnwTQEMgtSumYmff0vPB1PgkHuY5wDUtVilyQH_e5Y6HtkqZACnHn4DzUgKDH4CELhqxC_E-0MKqYONRmFjQpiJ6QIU_hG3POyrdS71XJ6EaT3ogSJDQ2jStwfiDGb_deDbVJa1HvUYl4wryHK6ESs1yGWdyJEAu-uv1MQGky9_C2wEty_M1Dppz-ZtXOI0Ri8SUxrkx_mtQ7All9GorIgGmfQ4pbOaiQa5CXFOlrNEIhyeR-9KHS3QcbfXNRIQhwoVlIOdjDvGSUoltXTy5gSWfVyJ1mcDKvMgMpLmYeaS0qN_8Wnvsr7BkWpezDnwRpgcFlliAqsIZ__pDgBUUJ_yIf9ajYmwzxw0JRGxIqElA_a3]--></g></svg>

<svg xmlns="http://www.w3.org/2000/svg" width="498" height="875" viewBox="0 0 498 875"><rect width="484" height="74.086" x="7" y="633.84" fill="#3D176E" rx="2.5" ry="2.5" style="stroke:#000d19;stroke-width:.5"/><circle cx="125.25" cy="653.735" r="11" fill="#ADD1B2" style="stroke:#181818;stroke-width:1"/><path d="M128.219 659.375q-.578.297-1.219.438-.64.156-1.344.156-2.5 0-3.828-1.64-1.312-1.657-1.312-4.782t1.312-4.781q1.328-1.656 3.828-1.656.703 0 1.344.156.656.156 1.219.453v2.719q-.625-.578-1.219-.844-.594-.281-1.219-.281-1.344 0-2.031 1.078-.687 1.062-.687 3.156t.687 3.172q.688 1.062 2.031 1.062.625 0 1.219-.265.594-.281 1.219-.86z"/><text x="150.75" y="659.62" fill="#D9B8FF" font-family="Helvetica" font-size="17" textLength="229">aws_ec2_internet_gateway</text><path d="M8 673.629h482" style="stroke:#000d19;stroke-width:.5"/><text x="18" y="695.624" fill="#D9B8FF" font-family="sans-serif" font-size="14" font-weight="bold" textLength="172">gateway_attachments</text><text x="190" y="695.624" fill="#D9B8FF" font-family="sans-serif" font-size="14" textLength="290">: aws_ec2_internet_gateway_attachment[]</text><rect width="378" height="100.383" x="60" y="767.93" fill="#3D176E" rx="2.5" ry="2.5" style="stroke:#000d19;stroke-width:.5"/><circle cx="75" cy="787.824" r="11" fill="#ADD1B2" style="stroke:#181818;stroke-width:1"/><path d="M77.969 793.465q-.578.297-1.219.438-.64.156-1.344.156-2.5 0-3.828-1.64-1.312-1.657-1.312-4.782t1.312-4.781q1.328-1.657 3.828-1.657.703 0 1.344.157.656.156 1.219.453v2.719q-.625-.579-1.219-.844-.594-.281-1.219-.281-1.344 0-2.031 1.078-.687 1.062-.687 3.156t.687 3.172q.688 1.062 2.031 1.062.625 0 1.219-.265.594-.282 1.219-.86z"/><text x="94" y="793.71" fill="#D9B8FF" font-family="Helvetica" font-size="17" textLength="336">aws_ec2_internet_gateway_attachment</text><path d="M61 807.719h376" style="stroke:#000d19;stroke-width:.5"/><text x="71" y="829.714" fill="#D9B8FF" font-family="sans-serif" font-size="14" font-weight="bold" textLength="40">state</text><text x="111" y="829.714" fill="#D9B8FF" font-family="sans-serif" font-size="14" textLength="48">: string</text><text x="71" y="856.011" fill="#D9B8FF" font-family="sans-serif" font-size="14" font-weight="bold" textLength="49">vpc_id</text><text x="120" y="856.011" fill="#D9B8FF" font-family="sans-serif" font-size="14" textLength="48">: string</text><rect width="155" height="74.086" x="87.5" y="438.76" fill="#3D176E" rx="2.5" ry="2.5" style="stroke:#000d19;stroke-width:.5"/><circle cx="102.5" cy="458.654" r="11" fill="#ADD1B2" style="stroke:#181818;stroke-width:1"/><path d="M105.469 464.295q-.578.297-1.219.438-.64.156-1.344.156-2.5 0-3.828-1.64-1.312-1.657-1.312-4.782t1.312-4.781q1.328-1.656 3.828-1.656.703 0 1.344.156.656.156 1.219.453v2.719q-.625-.579-1.219-.844-.594-.281-1.219-.281-1.344 0-2.031 1.078-.687 1.062-.687 3.156t.687 3.172q.688 1.062 2.031 1.062.625 0 1.219-.265.594-.281 1.219-.86z"/><text x="121.5" y="464.54" fill="#D9B8FF" font-family="Helvetica" font-size="17" textLength="113">aws_resource</text><path d="M88.5 478.549h153" style="stroke:#000d19;stroke-width:.5"/><text x="98.5" y="500.544" fill="#D9B8FF" font-family="sans-serif" font-size="14" font-weight="bold" textLength="26">arn</text><text x="124.5" y="500.544" fill="#D9B8FF" font-family="sans-serif" font-size="14" textLength="48">: string</text><rect width="114" height="39.789" x="277" y="455.9" fill="#3D176E" rx="2.5" ry="2.5" style="stroke:#000d19;stroke-width:.5"/><circle cx="292" cy="475.795" r="11" fill="#ADD1B2" style="stroke:#181818;stroke-width:1"/><path d="M294.969 481.435q-.578.297-1.219.438-.64.156-1.344.156-2.5 0-3.828-1.64-1.312-1.657-1.312-4.782t1.312-4.781q1.328-1.656 3.828-1.656.703 0 1.344.156.656.156 1.219.453v2.719q-.625-.578-1.219-.844-.594-.281-1.219-.281-1.344 0-2.031 1.078-.687 1.062-.687 3.156t.687 3.172q.688 1.062 2.031 1.062.625 0 1.219-.265.594-.281 1.219-.86z"/><text x="311" y="481.68" fill="#D9B8FF" font-family="Helvetica" font-size="17" textLength="72">gateway</text><rect width="227" height="310.758" x="135.5" y="7" fill="#3D176E" rx="2.5" ry="2.5" style="stroke:#000d19;stroke-width:.5"/><circle cx="204.25" cy="26.895" r="11" fill="#ADD1B2" style="stroke:#181818;stroke-width:1"/><path d="M207.219 32.535q-.578.297-1.219.438-.64.156-1.344.156-2.5 0-3.828-1.64-1.312-1.657-1.312-4.782t1.312-4.781q1.328-1.656 3.828-1.656.703 0 1.344.156.656.156 1.219.453v2.719q-.625-.578-1.219-.844-.594-.281-1.219-.281-1.344 0-2.031 1.078-.687 1.062-.687 3.156t.687 3.172q.688 1.062 2.031 1.062.625 0 1.219-.265.594-.281 1.219-.86z"/><text x="229.75" y="32.78" fill="#D9B8FF" font-family="Helvetica" font-size="17" textLength="71">resource</text><path d="M136.5 46.789h225" style="stroke:#000d19;stroke-width:.5"/><text x="146.5" y="68.784" fill="#D9B8FF" font-family="sans-serif" font-size="14" font-weight="bold" textLength="29">age</text><text x="175.5" y="68.784" fill="#D9B8FF" font-family="sans-serif" font-size="14" textLength="66">: duration</text><text x="146.5" y="95.081" fill="#D9B8FF" font-family="sans-serif" font-size="14" font-weight="bold" textLength="43">atime</text><text x="189.5" y="95.081" fill="#D9B8FF" font-family="sans-serif" font-size="14" textLength="70">: datetime</text><text x="146.5" y="121.378" fill="#D9B8FF" font-family="sans-serif" font-size="14" font-weight="bold" textLength="43">ctime</text><text x="189.5" y="121.378" fill="#D9B8FF" font-family="sans-serif" font-size="14" textLength="70">: datetime</text><text x="146.5" y="147.675" fill="#D9B8FF" font-family="sans-serif" font-size="14" font-weight="bold" textLength="14">id</text><text x="160.5" y="147.675" fill="#D9B8FF" font-family="sans-serif" font-size="14" textLength="48">: string</text><text x="146.5" y="173.972" fill="#D9B8FF" font-family="sans-serif" font-size="14" font-weight="bold" textLength="33">kind</text><text x="179.5" y="173.972" fill="#D9B8FF" font-family="sans-serif" font-size="14" textLength="48">: string</text><text x="146.5" y="200.269" fill="#D9B8FF" font-family="sans-serif" font-size="14" font-weight="bold" textLength="90">last_access</text><text x="236.5" y="200.269" fill="#D9B8FF" font-family="sans-serif" font-size="14" textLength="66">: duration</text><text x="146.5" y="226.565" fill="#D9B8FF" font-family="sans-serif" font-size="14" font-weight="bold" textLength="90">last_update</text><text x="236.5" y="226.565" fill="#D9B8FF" font-family="sans-serif" font-size="14" textLength="66">: duration</text><text x="146.5" y="252.862" fill="#D9B8FF" font-family="sans-serif" font-size="14" font-weight="bold" textLength="48">mtime</text><text x="194.5" y="252.862" fill="#D9B8FF" font-family="sans-serif" font-size="14" textLength="70">: datetime</text><text x="146.5" y="279.159" fill="#D9B8FF" font-family="sans-serif" font-size="14" font-weight="bold" textLength="43">name</text><text x="189.5" y="279.159" fill="#D9B8FF" font-family="sans-serif" font-size="14" textLength="48">: string</text><text x="146.5" y="305.456" fill="#D9B8FF" font-family="sans-serif" font-size="14" font-weight="bold" textLength="34">tags</text><text x="180.5" y="305.456" fill="#D9B8FF" font-family="sans-serif" font-size="14" textLength="171">: dictionary[string, string]</text><path fill="none" d="M249 708.16v53.46" style="stroke:#ffaf37;stroke-width:2"/><path fill="#FFAF37" d="m249 767.62 4-9-4 4-4-4z" style="stroke:#ffaf37;stroke-width:2"/><g fill="none"><path d="M187.98 529.626c14.97 34.41 30.15 69.314 45.15 103.774" style="stroke:#ffaf37;stroke-width:2"/><path d="m180.8 513.12 1.679 18.9 11.004-4.788z" style="stroke:#ffaf37;stroke-width:2"/></g><g fill="none"><path d="M318.286 512.493c-14.07 31.95-35.236 80.047-53.216 120.877" style="stroke:#ffaf37;stroke-width:2"/><path d="m325.54 496.02-12.746 14.055 10.983 4.837z" style="stroke:#ffaf37;stroke-width:2"/></g><path fill="none" d="M202.562 335.549c-12.15 45.04-19.632 72.791-27.772 102.961m32.46-120.34-10.481 15.816 11.586 3.125z" style="stroke:#ffaf37;stroke-width:2"/><g fill="none"><path d="M295.99 335.535c14.92 54.65 25.13 92.085 32.78 120.115" style="stroke:#ffaf37;stroke-width:2"/><path d="m291.25 318.17-1.048 18.945 11.577-3.16z" style="stroke:#ffaf37;stroke-width:2"/></g></svg>
